src/Static/Positions/ks-position-38.svg

<?xml version="1.0" encoding="UTF-8"?>
<svg width="205px" height="251px" viewBox="0 0 205 251" version="1.1" xmlns="http://www.w3.org/2000/svg" xmlns:xlink="http://www.w3.org/1999/xlink">
    <title>sex-etsy-38</title>
    <defs>
        <path d="M64.6231,91.2927 C65.0826,91.2927 65.5377,91.3234 65.9896,91.3716 L61.3108,80.9507 C58.9856,75.7695 61.3079,69.6616 66.4885,67.3355 C67.8264,66.7344 69.2444,66.4297 70.7024,66.4297 C74.7542,66.4297 78.4436,68.8174 80.1038,72.5127 L84.3014,81.8623 C84.3936,81.5027 84.4904,81.1308 84.5795,80.7788 C87.9887,71.0004 84.8918,58.9008 76.486,56.3083 C68.0779,53.7176 55.4679,57.6687 49.6394,72.0139 C46.7379,79.2774 44.6144,85.63 43.1489,91.8696 L64.2735,91.2976 L64.6231,91.2927 Z" id="path-1"></path>
        <filter x="-20.8%" y="-17.9%" width="140.6%" height="147.0%" filterUnits="objectBoundingBox" id="filter-2">
            <feMorphology radius="1.5" operator="dilate" in="SourceAlpha" result="shadowSpreadOuter1"></feMorphology>
            <feOffset dx="0" dy="2" in="shadowSpreadOuter1" result="shadowOffsetOuter1"></feOffset>
            <feGaussianBlur stdDeviation="2" in="shadowOffsetOuter1" result="shadowBlurOuter1"></feGaussianBlur>
            <feComposite in="shadowBlurOuter1" in2="SourceAlpha" operator="out" result="shadowBlurOuter1"></feComposite>
            <feColorMatrix values="0 0 0 0 0   0 0 0 0 0   0 0 0 0 0  0 0 0 1 0" type="matrix" in="shadowBlurOuter1"></feColorMatrix>
        </filter>
        <path d="M186.5694,68.9949 C185.3104,70.9057 183.751,72.6613 181.9034,74.195 C188.9547,80.4511 173.6141,97.109 178.158,109.1304 C183.5555,123.4099 197.1351,119.8009 192.8807,118.2086 C188.6263,116.6163 184.4669,111.9495 191.3983,96.6775 C198.3379,81.3868 192.7492,73.4939 186.5694,68.9949 Z" id="path-3"></path>
        <filter x="-49.0%" y="-14.0%" width="198.1%" height="134.7%" filterUnits="objectBoundingBox" id="filter-4">
            <feMorphology radius="1.5" operator="dilate" in="SourceAlpha" result="shadowSpreadOuter1"></feMorphology>
            <feOffset dx="0" dy="2" in="shadowSpreadOuter1" result="shadowOffsetOuter1"></feOffset>
            <feGaussianBlur stdDeviation="2" in="shadowOffsetOuter1" result="shadowBlurOuter1"></feGaussianBlur>
            <feComposite in="shadowBlurOuter1" in2="SourceAlpha" operator="out" result="shadowBlurOuter1"></feComposite>
            <feColorMatrix values="0 0 0 0 0   0 0 0 0 0   0 0 0 0 0  0 0 0 0.5 0" type="matrix" in="shadowBlurOuter1"></feColorMatrix>
        </filter>
        <path d="M180.2694,72.5675 C189.4813,65.0751 190.8752,51.5336 183.3829,42.3217 C175.8906,33.1098 162.3491,31.7159 153.1372,39.2082 C143.9253,46.7005 142.5312,60.2421 150.0237,69.4539 C157.5161,78.6659 171.0575,80.0599 180.2694,72.5675 Z" id="path-5"></path>
        <filter x="-19.8%" y="-15.1%" width="139.5%" height="139.5%" filterUnits="objectBoundingBox" id="filter-6">
            <feMorphology radius="1.5" operator="dilate" in="SourceAlpha" result="shadowSpreadOuter1"></feMorphology>
            <feOffset dx="0" dy="2" in="shadowSpreadOuter1" result="shadowOffsetOuter1"></feOffset>
            <feGaussianBlur stdDeviation="2" in="shadowOffsetOuter1" result="shadowBlurOuter1"></feGaussianBlur>
            <feComposite in="shadowBlurOuter1" in2="SourceAlpha" operator="out" result="shadowBlurOuter1"></feComposite>
            <feColorMatrix values="0 0 0 0 0   0 0 0 0 0   0 0 0 0 0  0 0 0 0.5 0" type="matrix" in="shadowBlurOuter1"></feColorMatrix>
        </filter>
        <rect id="path-7" x="111.8477" y="159.866" width="84" height="7.5"></rect>
        <filter x="-8.9%" y="-73.3%" width="117.9%" height="300.0%" filterUnits="objectBoundingBox" id="filter-8">
            <feMorphology radius="0.5" operator="dilate" in="SourceAlpha" result="shadowSpreadOuter1"></feMorphology>
            <feOffset dx="0" dy="2" in="shadowSpreadOuter1" result="shadowOffsetOuter1"></feOffset>
            <feGaussianBlur stdDeviation="2" in="shadowOffsetOuter1" result="shadowBlurOuter1"></feGaussianBlur>
            <feComposite in="shadowBlurOuter1" in2="SourceAlpha" operator="out" result="shadowBlurOuter1"></feComposite>
            <feColorMatrix values="0 0 0 0 0   0 0 0 0 0   0 0 0 0 0  0 0 0 1 0" type="matrix" in="shadowBlurOuter1"></feColorMatrix>
        </filter>
        <path d="M131.1647,122.9972 C132.7593,114.6408 135.2652,109.1914 137.8731,105.0405 L128.6739,90.5925 C126.0684,86.4992 127.2784,81.049 131.3712,78.4431 C132.7872,77.5417 134.42,77.0652 136.0919,77.0652 C139.1202,77.0652 141.8976,78.5881 143.5216,81.1399 L147.8392,87.9211 C150.2237,74.1621 141.4837,66.6305 131.5162,66.9461 C126.6573,74.4976 121.92,75.6462 118.3253,76.6027 C114.0421,76.3643 109.6774,76.2745 107.2174,76.6565 C106.9547,76.2313 106.5196,75.917 105.9864,75.8396 C105.0299,75.7009 104.1417,76.364 104.003,77.3204 C103.9542,77.6601 104.0098,77.9895 104.1402,78.2815 C99.0245,83.0774 95.8604,93.9612 110.3785,96.2102 C109.3807,101.5167 108.1485,106.3037 106.7907,110.6215 L126.4904,119.0044 C128.4953,119.8575 130.0855,121.2783 131.1647,122.9972 Z" id="path-9"></path>
        <filter x="-17.6%" y="-11.6%" width="135.1%" height="134.8%" filterUnits="objectBoundingBox" id="filter-10">
            <feMorphology radius="1.5" operator="dilate" in="SourceAlpha" result="shadowSpreadOuter1"></feMorphology>
            <feOffset dx="0" dy="2" in="shadowSpreadOuter1" result="shadowOffsetOuter1"></feOffset>
            <feGaussianBlur stdDeviation="2" in="shadowOffsetOuter1" result="shadowBlurOuter1"></feGaussianBlur>
            <feComposite in="shadowBlurOuter1" in2="SourceAlpha" operator="out" result="shadowBlurOuter1"></feComposite>
            <feColorMatrix values="0 0 0 0 0   0 0 0 0 0   0 0 0 0 0  0 0 0 0.5 0" type="matrix" in="shadowBlurOuter1"></feColorMatrix>
        </filter>
        <path d="M60.6006,114.7058 L93.854,145.7554 C94.2832,146.2069 94.7734,146.6629 95.3125,147.1176 L96.0928,147.846 C97.042,148.7321 98.1138,149.4 99.2471,149.8685 C110.0616,156.2481 128.8677,159.4998 129.5117,139.1497 C129.5476,138.0122 129.5974,136.9129 129.6572,135.8428 C127.7693,137.6914 125.2057,138.7837 122.4532,138.7837 C121.0645,138.7837 119.7091,138.5064 118.4239,137.9595 L83.1739,122.9595 C80.7794,121.9405 78.8751,120.0728 77.8106,117.7002 L67.1282,93.9076 C66.219,93.683 65.281,93.5706 64.336,93.5969 L10.2159,95.0622 C4.419,95.219 -0.1533,100.0456 0.0039,105.8425 C0.1582,111.5427 4.8271,116.0588 10.4941,116.0583 C10.5908,116.0583 10.6875,116.0568 10.7841,116.0544 L60.6006,114.7058 Z" id="path-11"></path>
        <filter x="-6.6%" y="-10.6%" width="113.3%" height="127.8%" filterUnits="objectBoundingBox" id="filter-12">
            <feMorphology radius="1.5" operator="dilate" in="SourceAlpha" result="shadowSpreadOuter1"></feMorphology>
            <feOffset dx="0" dy="2" in="shadowSpreadOuter1" result="shadowOffsetOuter1"></feOffset>
            <feGaussianBlur stdDeviation="2" in="shadowOffsetOuter1" result="shadowBlurOuter1"></feGaussianBlur>
            <feComposite in="shadowBlurOuter1" in2="SourceAlpha" operator="out" result="shadowBlurOuter1"></feComposite>
            <feColorMatrix values="0 0 0 0 0   0 0 0 0 0   0 0 0 0 0  0 0 0 0.5 0" type="matrix" in="shadowBlurOuter1"></feColorMatrix>
        </filter>
        <path d="M76.3059,136.3863 C76.4103,135.2801 76.4683,134.0474 76.4834,132.6836 L59.7197,117.0305 L40.5707,117.5489 C40.6067,120.5748 40.7215,123.7401 40.9297,127.1405 C41.2636,129.5582 41.7936,131.6595 42.4777,133.4974 C42.9342,135.3958 43.8359,137.2165 45.2095,138.7889 L78.0679,176.4041 L67.7788,232.0945 C66.5249,238.8826 71.0112,245.4031 77.8003,246.657 C78.5679,246.7986 79.3316,246.867 80.0855,246.867 C85.9957,246.867 91.2505,242.657 92.3628,236.6356 L103.7495,175.0028 C104.4429,171.2489 103.3833,167.3837 100.8716,164.5087 L76.3059,136.3863 Z" id="path-13"></path>
        <filter x="-13.4%" y="-5.0%" width="126.8%" height="113.1%" filterUnits="objectBoundingBox" id="filter-14">
            <feMorphology radius="1.5" operator="dilate" in="SourceAlpha" result="shadowSpreadOuter1"></feMorphology>
            <feOffset dx="0" dy="2" in="shadowSpreadOuter1" result="shadowOffsetOuter1"></feOffset>
            <feGaussianBlur stdDeviation="2" in="shadowOffsetOuter1" result="shadowBlurOuter1"></feGaussianBlur>
            <feComposite in="shadowBlurOuter1" in2="SourceAlpha" operator="out" result="shadowBlurOuter1"></feComposite>
            <feColorMatrix values="0 0 0 0 0   0 0 0 0 0   0 0 0 0 0  0 0 0 1 0" type="matrix" in="shadowBlurOuter1"></feColorMatrix>
        </filter>
        <ellipse id="path-15" cx="85.5311511" cy="30.4997606" rx="22.5003233" ry="22.5002233"></ellipse>
        <filter x="-18.9%" y="-14.4%" width="137.8%" height="137.8%" filterUnits="objectBoundingBox" id="filter-16">
            <feMorphology radius="1.5" operator="dilate" in="SourceAlpha" result="shadowSpreadOuter1"></feMorphology>
            <feOffset dx="0" dy="2" in="shadowSpreadOuter1" result="shadowOffsetOuter1"></feOffset>
            <feGaussianBlur stdDeviation="2" in="shadowOffsetOuter1" result="shadowBlurOuter1"></feGaussianBlur>
            <feComposite in="shadowBlurOuter1" in2="SourceAlpha" operator="out" result="shadowBlurOuter1"></feComposite>
            <feColorMatrix values="0 0 0 0 0   0 0 0 0 0   0 0 0 0 0  0 0 0 1 0" type="matrix" in="shadowBlurOuter1"></feColorMatrix>
        </filter>
        <path d="M79.9093,116.7588 C80.7335,118.5962 82.2218,120.0547 84.0743,120.8433 L119.3243,135.8433 C120.3468,136.2784 121.4083,136.4839 122.4532,136.4839 C125.5645,136.4839 128.5235,134.6577 129.8184,131.6143 C131.5479,127.5489 129.6553,122.8506 125.5899,121.1206 L93.2218,107.3471 L78.005,73.4551 C76.1954,69.4253 71.4611,67.6236 67.4308,69.4336 C63.3995,71.2437 61.5997,75.978 63.4093,80.0088 L79.9093,116.7588 Z" id="path-17"></path>
        <filter x="-12.5%" y="-9.6%" width="125.1%" height="125.1%" filterUnits="objectBoundingBox" id="filter-18">
            <feMorphology radius="1.5" operator="dilate" in="SourceAlpha" result="shadowSpreadOuter1"></feMorphology>
            <feOffset dx="0" dy="2" in="shadowSpreadOuter1" result="shadowOffsetOuter1"></feOffset>
            <feGaussianBlur stdDeviation="2" in="shadowOffsetOuter1" result="shadowBlurOuter1"></feGaussianBlur>
            <feComposite in="shadowBlurOuter1" in2="SourceAlpha" operator="out" result="shadowBlurOuter1"></feComposite>
            <feColorMatrix values="0 0 0 0 0   0 0 0 0 0   0 0 0 0 0  0 0 0 1 0" type="matrix" in="shadowBlurOuter1"></feColorMatrix>
        </filter>
        <path d="M141.5811,82.3747 C139.6534,79.3464 135.6348,78.4553 132.6065,80.383 C129.5782,82.3112 128.6866,86.3288 130.6143,89.3571 L171.3643,153.3571 C172.6036,155.3034 174.7061,156.3669 176.8536,156.3669 C178.0479,156.3669 179.2569,156.0378 180.339,155.3488 C183.3673,153.4206 184.2589,149.403 182.3312,146.3747 L141.5811,82.3747 Z" id="path-19"></path>
        <filter x="-15.8%" y="-8.4%" width="131.6%" height="122.1%" filterUnits="objectBoundingBox" id="filter-20">
            <feMorphology radius="1.5" operator="dilate" in="SourceAlpha" result="shadowSpreadOuter1"></feMorphology>
            <feOffset dx="0" dy="2" in="shadowSpreadOuter1" result="shadowOffsetOuter1"></feOffset>
            <feGaussianBlur stdDeviation="2" in="shadowOffsetOuter1" result="shadowBlurOuter1"></feGaussianBlur>
            <feComposite in="shadowBlurOuter1" in2="SourceAlpha" operator="out" result="shadowBlurOuter1"></feComposite>
            <feColorMatrix values="0 0 0 0 0   0 0 0 0 0   0 0 0 0 0  0 0 0 0.5 0" type="matrix" in="shadowBlurOuter1"></feColorMatrix>
        </filter>
    </defs>
    <g id="Page-2" stroke="none" stroke-width="1" fill="none" fill-rule="evenodd">
        <g id="sex-etsy-38" transform="translate(5.000000, -3.000000)" fill-rule="nonzero">
            <g id="Path">
                <use fill="black" fill-opacity="1" filter="url(#filter-2)" xlink:href="#path-1"></use>
                <use stroke="#1A1A1D" stroke-width="3" fill="#4E4E50" xlink:href="#path-1"></use>
            </g>
            <g id="Path">
                <use fill="black" fill-opacity="1" filter="url(#filter-4)" xlink:href="#path-3"></use>
                <use stroke="#1A1A1D" stroke-width="3" fill="#6F2232" xlink:href="#path-3"></use>
            </g>
            <g id="Path">
                <use fill="black" fill-opacity="1" filter="url(#filter-6)" xlink:href="#path-5"></use>
                <use stroke="#1A1A1D" stroke-width="3" fill="#6F2232" xlink:href="#path-5"></use>
            </g>
            <g id="Rectangle">
                <use fill="black" fill-opacity="1" filter="url(#filter-8)" xlink:href="#path-7"></use>
                <use stroke="#1A1A1D" stroke-width="1" fill="#4E4E50" xlink:href="#path-7"></use>
            </g>
            <g id="Path">
                <use fill="black" fill-opacity="1" filter="url(#filter-10)" xlink:href="#path-9"></use>
                <use stroke="#1A1A1D" stroke-width="3" fill="#6F2232" xlink:href="#path-9"></use>
            </g>
            <g id="Path">
                <use fill="black" fill-opacity="1" filter="url(#filter-12)" xlink:href="#path-11"></use>
                <use stroke="#1A1A1D" stroke-width="3" fill="#6F2232" xlink:href="#path-11"></use>
            </g>
            <g id="Path">
                <use fill="black" fill-opacity="1" filter="url(#filter-14)" xlink:href="#path-13"></use>
                <use stroke="#1A1A1D" stroke-width="3" fill="#4E4E50" xlink:href="#path-13"></use>
            </g>
            <g id="Oval" transform="translate(85.531151, 30.499761) rotate(-63.417013) translate(-85.531151, -30.499761) ">
                <use fill="black" fill-opacity="1" filter="url(#filter-16)" xlink:href="#path-15"></use>
                <use stroke="#1A1A1D" stroke-width="3" fill="#4E4E50" xlink:href="#path-15"></use>
            </g>
            <g id="Path">
                <use fill="black" fill-opacity="1" filter="url(#filter-18)" xlink:href="#path-17"></use>
                <use stroke="#1A1A1D" stroke-width="3" fill="#4E4E50" xlink:href="#path-17"></use>
            </g>
            <g id="Path">
                <use fill="black" fill-opacity="1" filter="url(#filter-20)" xlink:href="#path-19"></use>
                <use stroke="#1A1A1D" stroke-width="3" fill="#6F2232" xlink:href="#path-19"></use>
            </g>
        </g>
    </g>
</svg>

<svg xmlns="http://www.w3.org/2000/svg" xmlns:xlink="http://www.w3.org/1999/xlink" width="205" height="251"><defs><filter id="s" width="131.6%" height="122.1%" x="-15.8%" y="-8.4%" filterUnits="objectBoundingBox"><feMorphology in="SourceAlpha" operator="dilate" radius="1.5" result="shadowSpreadOuter1"/><feOffset dy="2" in="shadowSpreadOuter1" result="shadowOffsetOuter1"/><feGaussianBlur in="shadowOffsetOuter1" result="shadowBlurOuter1" stdDeviation="2"/><feComposite in="shadowBlurOuter1" in2="SourceAlpha" operator="out" result="shadowBlurOuter1"/><feColorMatrix in="shadowBlurOuter1" values="0 0 0 0 0 0 0 0 0 0 0 0 0 0 0 0 0 0 0.5 0"/></filter><filter id="c" width="198.1%" height="134.7%" x="-49%" y="-14%" filterUnits="objectBoundingBox"><feMorphology in="SourceAlpha" operator="dilate" radius="1.5" result="shadowSpreadOuter1"/><feOffset dy="2" in="shadowSpreadOuter1" result="shadowOffsetOuter1"/><feGaussianBlur in="shadowOffsetOuter1" result="shadowBlurOuter1" stdDeviation="2"/><feComposite in="shadowBlurOuter1" in2="SourceAlpha" operator="out" result="shadowBlurOuter1"/><feColorMatrix in="shadowBlurOuter1" values="0 0 0 0 0 0 0 0 0 0 0 0 0 0 0 0 0 0 0.5 0"/></filter><filter id="e" width="139.5%" height="139.5%" x="-19.8%" y="-15.1%" filterUnits="objectBoundingBox"><feMorphology in="SourceAlpha" operator="dilate" radius="1.5" result="shadowSpreadOuter1"/><feOffset dy="2" in="shadowSpreadOuter1" result="shadowOffsetOuter1"/><feGaussianBlur in="shadowOffsetOuter1" result="shadowBlurOuter1" stdDeviation="2"/><feComposite in="shadowBlurOuter1" in2="SourceAlpha" operator="out" result="shadowBlurOuter1"/><feColorMatrix in="shadowBlurOuter1" values="0 0 0 0 0 0 0 0 0 0 0 0 0 0 0 0 0 0 0.5 0"/></filter><filter id="g" width="117.9%" height="300%" x="-8.9%" y="-73.3%" filterUnits="objectBoundingBox"><feMorphology in="SourceAlpha" operator="dilate" radius=".5" result="shadowSpreadOuter1"/><feOffset dy="2" in="shadowSpreadOuter1" result="shadowOffsetOuter1"/><feGaussianBlur in="shadowOffsetOuter1" result="shadowBlurOuter1" stdDeviation="2"/><feComposite in="shadowBlurOuter1" in2="SourceAlpha" operator="out" result="shadowBlurOuter1"/><feColorMatrix in="shadowBlurOuter1" values="0 0 0 0 0 0 0 0 0 0 0 0 0 0 0 0 0 0 1 0"/></filter><filter id="i" width="135.1%" height="134.8%" x="-17.6%" y="-11.6%" filterUnits="objectBoundingBox"><feMorphology in="SourceAlpha" operator="dilate" radius="1.5" result="shadowSpreadOuter1"/><feOffset dy="2" in="shadowSpreadOuter1" result="shadowOffsetOuter1"/><feGaussianBlur in="shadowOffsetOuter1" result="shadowBlurOuter1" stdDeviation="2"/><feComposite in="shadowBlurOuter1" in2="SourceAlpha" operator="out" result="shadowBlurOuter1"/><feColorMatrix in="shadowBlurOuter1" values="0 0 0 0 0 0 0 0 0 0 0 0 0 0 0 0 0 0 0.5 0"/></filter><filter id="a" width="140.6%" height="147%" x="-20.8%" y="-17.9%" filterUnits="objectBoundingBox"><feMorphology in="SourceAlpha" operator="dilate" radius="1.5" result="shadowSpreadOuter1"/><feOffset dy="2" in="shadowSpreadOuter1" result="shadowOffsetOuter1"/><feGaussianBlur in="shadowOffsetOuter1" result="shadowBlurOuter1" stdDeviation="2"/><feComposite in="shadowBlurOuter1" in2="SourceAlpha" operator="out" result="shadowBlurOuter1"/><feColorMatrix in="shadowBlurOuter1" values="0 0 0 0 0 0 0 0 0 0 0 0 0 0 0 0 0 0 1 0"/></filter><filter id="k" width="113.3%" height="127.8%" x="-6.6%" y="-10.6%" filterUnits="objectBoundingBox"><feMorphology in="SourceAlpha" operator="dilate" radius="1.5" result="shadowSpreadOuter1"/><feOffset dy="2" in="shadowSpreadOuter1" result="shadowOffsetOuter1"/><feGaussianBlur in="shadowOffsetOuter1" result="shadowBlurOuter1" stdDeviation="2"/><feComposite in="shadowBlurOuter1" in2="SourceAlpha" operator="out" result="shadowBlurOuter1"/><feColorMatrix in="shadowBlurOuter1" values="0 0 0 0 0 0 0 0 0 0 0 0 0 0 0 0 0 0 0.5 0"/></filter><filter id="m" width="126.8%" height="113.1%" x="-13.4%" y="-5%" filterUnits="objectBoundingBox"><feMorphology in="SourceAlpha" operator="dilate" radius="1.5" result="shadowSpreadOuter1"/><feOffset dy="2" in="shadowSpreadOuter1" result="shadowOffsetOuter1"/><feGaussianBlur in="shadowOffsetOuter1" result="shadowBlurOuter1" stdDeviation="2"/><feComposite in="shadowBlurOuter1" in2="SourceAlpha" operator="out" result="shadowBlurOuter1"/><feColorMatrix in="shadowBlurOuter1" values="0 0 0 0 0 0 0 0 0 0 0 0 0 0 0 0 0 0 1 0"/></filter><filter id="o" width="137.8%" height="137.8%" x="-18.9%" y="-14.4%" filterUnits="objectBoundingBox"><feMorphology in="SourceAlpha" operator="dilate" radius="1.5" result="shadowSpreadOuter1"/><feOffset dy="2" in="shadowSpreadOuter1" result="shadowOffsetOuter1"/><feGaussianBlur in="shadowOffsetOuter1" result="shadowBlurOuter1" stdDeviation="2"/><feComposite in="shadowBlurOuter1" in2="SourceAlpha" operator="out" result="shadowBlurOuter1"/><feColorMatrix in="shadowBlurOuter1" values="0 0 0 0 0 0 0 0 0 0 0 0 0 0 0 0 0 0 1 0"/></filter><filter id="q" width="125.1%" height="125.1%" x="-12.5%" y="-9.6%" filterUnits="objectBoundingBox"><feMorphology in="SourceAlpha" operator="dilate" radius="1.5" result="shadowSpreadOuter1"/><feOffset dy="2" in="shadowSpreadOuter1" result="shadowOffsetOuter1"/><feGaussianBlur in="shadowOffsetOuter1" result="shadowBlurOuter1" stdDeviation="2"/><feComposite in="shadowBlurOuter1" in2="SourceAlpha" operator="out" result="shadowBlurOuter1"/><feColorMatrix in="shadowBlurOuter1" values="0 0 0 0 0 0 0 0 0 0 0 0 0 0 0 0 0 0 1 0"/></filter><path id="d" d="M186.57 69a23.7 23.7 0 01-4.67 5.2c7.05 6.25-8.29 22.9-3.74 34.93 5.4 14.28 18.98 10.67 14.72 9.08-4.25-1.6-8.41-6.26-1.48-21.53 6.94-15.3 1.35-23.19-4.83-27.69z"/><path id="h" d="M111.85 159.87h84v7.5h-84z"/><path id="n" d="M76.3 136.39c.11-1.11.17-2.34.18-3.7l-16.76-15.66-19.15.52c.04 3.02.15 6.19.36 9.6.33 2.4.86 4.51 1.55 6.35.45 1.9 1.36 3.72 2.73 5.29l32.86 37.61-10.3 55.7a12.5 12.5 0 0024.6 4.54L103.74 175a12.5 12.5 0 00-2.88-10.5L76.31 136.4z"/><path id="b" d="M64.62 91.3c.46 0 .92.02 1.37.07l-4.68-10.42a10.31 10.31 0 019.4-14.52c4.04 0 7.73 2.39 9.4 6.08l4.2 9.35c.08-.36.18-.73.27-1.08 3.4-9.78.31-21.88-8.1-24.47-8.4-2.6-21.01 1.36-26.84 15.7a138.8 138.8 0 00-6.5 19.86l21.13-.57h.35z"/><path id="t" d="M141.58 82.37a6.5 6.5 0 00-10.97 6.99l40.75 64a6.5 6.5 0 1010.97-6.99l-40.75-64z"/><path id="j" d="M131.16 123c1.6-8.36 4.1-13.8 6.71-17.96l-9.2-14.45a8.81 8.81 0 0114.85-9.45l4.32 6.78c2.38-13.76-6.36-21.29-16.32-20.97-4.86 7.55-9.6 8.7-13.2 9.65-4.28-.24-8.64-.33-11.1.06a1.74 1.74 0 00-3.22.66c-.05.34.01.67.14.96-5.12 4.8-8.28 15.68 6.24 17.93-1 5.3-2.23 10.1-3.59 14.41l19.7 8.38c2 .86 3.6 2.28 4.67 4z"/><path id="r" d="M79.9 116.76a8 8 0 004.17 4.08l35.25 15a7.97 7.97 0 0010.5-4.23 8 8 0 00-4.23-10.49l-32.37-13.77L78 73.45a8 8 0 10-14.6 6.56l16.5 36.75z"/><path id="f" d="M180.27 72.57a21.5 21.5 0 10-27.13-33.36 21.5 21.5 0 0027.13 33.36z"/><path id="l" d="M60.6 114.7l33.25 31.06c.43.45.92.9 1.46 1.36l.78.73c.95.88 2.02 1.55 3.16 2.02 10.81 6.38 29.62 9.63 30.26-10.72.04-1.14.09-2.24.15-3.3a10.28 10.28 0 01-11.24 2.1l-35.25-14.99a10.27 10.27 0 01-5.36-5.26L67.13 93.9c-.91-.22-1.85-.33-2.8-.3l-54.11 1.46a10.5 10.5 0 10.56 21l49.82-1.35z"/><circle id="p" cx="85.531" cy="30.5" r="22.5"/></defs><g fill="none" fill-rule="nonzero"><g transform="translate(5 -3)"><use fill="#000" filter="url(#a)" xlink:href="#b"/><use fill="#4E4E50" stroke="#1A1A1D" stroke-width="3" xlink:href="#b"/></g><g transform="translate(5 -3)"><use fill="#000" filter="url(#c)" xlink:href="#d"/><use fill="#6F2232" stroke="#1A1A1D" stroke-width="3" xlink:href="#d"/></g><g transform="translate(5 -3)"><use fill="#000" filter="url(#e)" xlink:href="#f"/><use fill="#6F2232" stroke="#1A1A1D" stroke-width="3" xlink:href="#f"/></g><g transform="translate(5 -3)"><use fill="#000" filter="url(#g)" xlink:href="#h"/><use fill="#4E4E50" stroke="#1A1A1D" xlink:href="#h"/></g><g transform="translate(5 -3)"><use fill="#000" filter="url(#i)" xlink:href="#j"/><use fill="#6F2232" stroke="#1A1A1D" stroke-width="3" xlink:href="#j"/></g><g transform="translate(5 -3)"><use fill="#000" filter="url(#k)" xlink:href="#l"/><use fill="#6F2232" stroke="#1A1A1D" stroke-width="3" xlink:href="#l"/></g><g transform="translate(5 -3)"><use fill="#000" filter="url(#m)" xlink:href="#n"/><use fill="#4E4E50" stroke="#1A1A1D" stroke-width="3" xlink:href="#n"/></g><g transform="rotate(-63.417 85.603 24.953)"><use fill="#000" filter="url(#o)" xlink:href="#p"/><use fill="#4E4E50" stroke="#1A1A1D" stroke-width="3" xlink:href="#p"/></g><g transform="translate(5 -3)"><use fill="#000" filter="url(#q)" xlink:href="#r"/><use fill="#4E4E50" stroke="#1A1A1D" stroke-width="3" xlink:href="#r"/></g><g transform="translate(5 -3)"><use fill="#000" filter="url(#s)" xlink:href="#t"/><use fill="#6F2232" stroke="#1A1A1D" stroke-width="3" xlink:href="#t"/></g></g></svg>
